Sources/FrostedUI/Resources/Icons.xcassets/arrowUpRightFromBracket32.imageset/arrow-up-right-from-bracket-32.svg

<svg width="32" height="32" viewBox="0 0 32 32" fill="none" xmlns="http://www.w3.org/2000/svg" data-fui-icon="true">
  <path
    d="M29.25 21.0004C29.6642 21.0004 30 21.3362 30 21.7504V24.2504C29.9998 27.4259 27.4255 30.0004 24.25 30.0004H7.75C4.57451 30.0004 2.00023 27.4259 2 24.2504V21.7504C2 21.3362 2.33579 21.0004 2.75 21.0004C3.16421 21.0004 3.5 21.3362 3.5 21.7504V24.2504C3.50023 26.5974 5.40293 28.5004 7.75 28.5004H24.25C26.5971 28.5004 28.4998 26.5974 28.5 24.2504V21.7504C28.5 21.3362 28.8358 21.0004 29.25 21.0004ZM20.2197 2.47015C20.5126 2.17726 20.9874 2.17726 21.2803 2.47015L26.0303 7.22015C26.3229 7.51306 26.3231 7.98788 26.0303 8.2807L21.2803 13.0307C20.9874 13.3233 20.5126 13.3233 20.2197 13.0307C19.9269 12.7379 19.9271 12.2631 20.2197 11.9702L23.6895 8.50043H17.75C15.4028 8.50043 13.5 10.4032 13.5 12.7504V21.2504C13.4998 21.6644 13.1641 22.0004 12.75 22.0004C12.3359 22.0004 12.0002 21.6644 12 21.2504V12.7504C12 9.57479 14.5744 7.00043 17.75 7.00043H23.6895L20.2197 3.5307C19.9269 3.23788 19.9271 2.76306 20.2197 2.47015Z"
    fill="currentColor"
  />
</svg>

<svg xmlns="http://www.w3.org/2000/svg" width="32" height="32" fill="none" data-fui-icon="true" viewBox="0 0 32 32"><path fill="currentColor" d="M29.25 21a.75.75 0 0 1 .75.75v2.5A5.75 5.75 0 0 1 24.25 30H7.75A5.75 5.75 0 0 1 2 24.25v-2.5a.75.75 0 0 1 1.5 0v2.5a4.25 4.25 0 0 0 4.25 4.25h16.5a4.25 4.25 0 0 0 4.25-4.25v-2.5a.75.75 0 0 1 .75-.75M20.22 2.47a.75.75 0 0 1 1.06 0l4.75 4.75a.75.75 0 0 1 0 1.06l-4.75 4.75a.75.75 0 0 1-1.06-1.06l3.47-3.47h-5.94a4.25 4.25 0 0 0-4.25 4.25v8.5a.75.75 0 0 1-1.5 0v-8.5A5.75 5.75 0 0 1 17.75 7h5.94l-3.47-3.47a.75.75 0 0 1 0-1.06"/></svg>
